X: 937
T: Gülizâr Seyir
C: Erol Bingöl
O: Turkey
F: http://compmusic.upf.edu/node/140
N: gulizar--seyir--duyek--1--erol_bingol
N: makam= gulizar
N: form= seyir
N: usul= duyek = 8/4
M: 8/4
L: 1/16
K: C _2/4B ^3/4f  
Q: 1/4=120
%%MIDI tuningsystem comma53
fg a4 a2 a2 c'2 b2 a2  | g2 fg e2 d2 ed cB A4  | \
w:   |   | 
g2 f2 g2 a2 =b2 a2 g2 f2  | 
w:   | 
a3g gf fe e8  | d2 e4 a2 g2 fg e2 d2  | \
w:   |   | 
c2 d4 g2 gf _7/8ed cB c2  | 
w:   | 
d2 _7/8e2 d2 g2 f2 e2 d2 c2  | ed2c cB BA A8  | |


